my-app/src/IMG/cloud.svg

<svg width="392" height="299" viewBox="0 0 392 299" fill="none" xmlns="http://www.w3.org/2000/svg">
<g filter="url(#filter0_f_7_2004)">
<path d="M175.681 213.282C175.681 213.282 233.264 216.394 258.8 208.982C284.336 201.57 284.3 163.082 258.8 153.59C233.3 144.098 224.582 178.015 224.582 178.015" stroke="#D0D0D0" stroke-width="16" stroke-linecap="round"/>
<path d="M76.6313 254.857C76.6313 254.857 163.185 247.037 201.343 254.857C239.501 262.677 227.351 285.112 209.267 286.137C191.183 287.162 174.496 275.28 174.496 275.28" stroke="#D0D0D0" stroke-width="16" stroke-linecap="round"/>
<path d="M260.856 254.795H295.268" stroke="#D0D0D0" stroke-width="16" stroke-linecap="round"/>
<path d="M98.8564 213.795H133.268" stroke="#D0D0D0" stroke-width="16" stroke-linecap="round"/>
</g>
<g filter="url(#filter1_df_7_2004)">
<g filter="url(#filter2_d_7_2004)">
<path d="M235.562 233.765C233.629 233.92 231.676 233.999 229.705 234H92.1812C82.7149 234.035 73.3348 232.201 64.579 228.603C55.8232 225.005 47.8639 219.714 41.1577 213.032C34.4516 206.351 29.1305 198.412 25.4997 189.669C21.869 180.927 20 171.554 20 162.087C20 152.621 21.869 143.248 25.4997 134.506C29.1305 125.763 34.4516 117.824 41.1577 111.143C47.8639 104.461 55.8232 99.17 64.579 95.5718C73.3348 91.9737 82.7149 90.1397 92.1812 90.175H143.457C160.081 53.6 198.368 28 242.941 28C302.768 28 351.268 74.115 351.268 131C351.268 187.885 302.768 234 242.941 234C240.461 234 238.001 233.922 235.562 233.765Z" fill="url(#paint0_linear_7_2004)"/>
<path d="M242.941 233C250.227 233 257.508 232.302 264.581 230.926C271.475 229.585 278.255 227.584 284.733 224.978C291.094 222.42 297.229 219.254 302.967 215.568C308.65 211.917 313.994 207.725 318.851 203.107C323.706 198.49 328.114 193.411 331.952 188.009C335.826 182.557 339.154 176.728 341.842 170.686C344.579 164.532 346.681 158.093 348.09 151.547C349.535 144.831 350.268 137.917 350.268 131C350.268 124.082 349.535 117.169 348.09 110.452C346.681 103.906 344.579 97.4673 341.842 91.3142C339.154 85.2716 335.826 79.4433 331.952 73.991C328.114 68.5893 323.706 63.5095 318.851 58.8928C313.994 54.2752 308.65 50.0829 302.967 46.4323C297.229 42.7461 291.094 39.5801 284.733 37.0221C278.255 34.4165 271.475 32.4154 264.581 31.0742C257.508 29.6979 250.227 29 242.941 29C221.57 29 200.931 34.9523 183.254 46.2135C174.734 51.6418 167.077 58.1939 160.497 65.6878C153.876 73.2291 148.449 81.6069 144.367 90.5885L144.1 91.1747H143.456H92.1807C82.6072 91.1747 73.3205 93.0495 64.5787 96.747C60.3771 98.5242 56.3245 100.724 52.5336 103.285C48.7784 105.822 45.2472 108.735 42.038 111.945C38.8288 115.154 35.9152 118.685 33.3783 122.44C30.8172 126.231 28.6175 130.284 26.8404 134.485C23.1429 143.227 21.2681 152.514 21.2681 162.087C21.2681 171.661 23.1429 180.948 26.8404 189.689C28.6175 193.891 30.8172 197.944 33.3783 201.735C35.9152 205.49 38.8288 209.021 42.038 212.23C45.2472 215.439 48.7784 218.353 52.5336 220.89C56.3245 223.451 60.3771 225.651 64.5787 227.428C73.3205 231.125 82.6072 233 92.1807 233H229.705C231.628 233 233.572 232.922 235.482 232.768L235.554 232.762L235.626 232.767C238.046 232.922 240.507 233 242.941 233ZM242.941 234C240.461 234 238 233.921 235.562 233.765C233.632 233.92 231.676 234 229.705 234H92.1807C52.4646 234 20.2681 201.803 20.2681 162.087C20.2681 122.371 52.4646 90.1747 92.1807 90.1747H143.456C160.081 53.5954 198.366 28 242.941 28C302.768 28 351.268 74.1151 351.268 131C351.268 187.885 302.768 234 242.941 234Z" fill="white" fill-opacity="0.5"/>
</g>
</g>
<defs>
<filter id="filter0_f_7_2004" x="64.6309" y="139.914" width="242.638" height="158.286" filterUnits="userSpaceOnUse" color-interpolation-filters="sRGB">
<feFlood flood-opacity="0" result="BackgroundImageFix"/>
<feBlend mode="normal" in="SourceGraphic" in2="BackgroundImageFix" result="shape"/>
<feGaussianBlur stdDeviation="2" result="effect1_foregroundBlur_7_2004"/>
</filter>
<filter id="filter1_df_7_2004" x="0" y="0" width="391.268" height="266" filterUnits="userSpaceOnUse" color-interpolation-filters="sRGB">
<feFlood flood-opacity="0" result="BackgroundImageFix"/>
<feColorMatrix in="SourceAlpha" type="matrix" values="0 0 0 0 0 0 0 0 0 0 0 0 0 0 0 0 0 0 127 0" result="hardAlpha"/>
<feOffset dx="10" dy="2"/>
<feGaussianBlur stdDeviation="15"/>
<feColorMatrix type="matrix" values="0 0 0 0 0.258824 0 0 0 0 0.627451 0 0 0 0 0.941176 0 0 0 0.596 0"/>
<feBlend mode="normal" in2="BackgroundImageFix" result="effect1_dropShadow_7_2004"/>
<feBlend mode="normal" in="SourceGraphic" in2="effect1_dropShadow_7_2004" result="shape"/>
<feGaussianBlur stdDeviation="2" result="effect2_foregroundBlur_7_2004"/>
</filter>
<filter id="filter2_d_7_2004" x="0" y="0" width="391.268" height="266" filterUnits="userSpaceOnUse" color-interpolation-filters="sRGB">
<feFlood flood-opacity="0" result="BackgroundImageFix"/>
<feColorMatrix in="SourceAlpha" type="matrix" values="0 0 0 0 0 0 0 0 0 0 0 0 0 0 0 0 0 0 127 0" result="hardAlpha"/>
<feOffset dx="10" dy="2"/>
<feGaussianBlur stdDeviation="15"/>
<feColorMatrix type="matrix" values="0 0 0 0 0.501961 0 0 0 0 0.501961 0 0 0 0 0.501961 0 0 0 0.302 0"/>
<feBlend mode="normal" in2="BackgroundImageFix" result="effect1_dropShadow_7_2004"/>
<feBlend mode="normal" in="SourceGraphic" in2="effect1_dropShadow_7_2004" result="shape"/>
</filter>
<linearGradient id="paint0_linear_7_2004" x1="154.164" y1="53.9561" x2="220.206" y2="245.168" gradientUnits="userSpaceOnUse">
<stop stop-color="white" stop-opacity="0.596"/>
<stop offset="1" stop-color="#F7F7F7" stop-opacity="0.204"/>
</linearGradient>
</defs>
</svg>

<svg width="392" height="299" fill="none" xmlns="http://www.w3.org/2000/svg"><g filter="url(#a)" stroke="#D0D0D0" stroke-width="16" stroke-linecap="round"><path d="M175.681 213.282s57.583 3.112 83.119-4.3 25.5-45.9 0-55.392c-25.5-9.492-34.218 24.425-34.218 24.425M76.631 254.857s86.554-7.82 124.712 0 26.008 30.255 7.924 31.28c-18.084 1.025-34.771-10.857-34.771-10.857M260.856 254.795h34.412M98.856 213.795h34.412"/></g><g filter="url(#b)"><g filter="url(#c)"><path d="M235.562 233.765a73.73 73.73 0 0 1-5.857.235H92.181a71.921 71.921 0 0 1-51.023-20.968A71.906 71.906 0 0 1 20 162.087a71.91 71.91 0 0 1 44.579-66.515 71.913 71.913 0 0 1 27.602-5.397h51.276C160.081 53.6 198.368 28 242.941 28c59.827 0 108.327 46.115 108.327 103s-48.5 103-108.327 103c-2.48 0-4.94-.078-7.379-.235Z" fill="url(#d)"/><path d="M242.941 233c7.286 0 14.567-.698 21.64-2.074a110.812 110.812 0 0 0 20.152-5.948 109.195 109.195 0 0 0 18.234-9.41 107.159 107.159 0 0 0 15.884-12.461 104.087 104.087 0 0 0 13.101-15.098 100.538 100.538 0 0 0 9.89-17.323 97.878 97.878 0 0 0 6.248-19.139A97.869 97.869 0 0 0 350.268 131c0-6.918-.733-13.831-2.178-20.548a97.848 97.848 0 0 0-6.248-19.138 100.528 100.528 0 0 0-9.89-17.323 104.088 104.088 0 0 0-13.101-15.098 107.156 107.156 0 0 0-15.884-12.46 109.18 109.18 0 0 0-18.234-9.41 110.86 110.86 0 0 0-20.152-5.949A113.563 113.563 0 0 0 242.941 29c-21.371 0-42.01 5.952-59.687 17.214-8.52 5.428-16.177 11.98-22.757 19.474-6.621 7.541-12.048 15.919-16.13 24.9l-.267.587H92.181c-9.574 0-18.86 1.874-27.602 5.572a70.929 70.929 0 0 0-12.045 6.538 71.38 71.38 0 0 0-19.156 19.155 70.94 70.94 0 0 0-6.538 12.045c-3.697 8.742-5.572 18.029-5.572 27.602 0 9.574 1.875 18.861 5.572 27.602a70.91 70.91 0 0 0 6.538 12.046 71.418 71.418 0 0 0 8.66 10.495 71.444 71.444 0 0 0 10.496 8.66 70.915 70.915 0 0 0 12.045 6.538C73.32 231.125 82.607 233 92.18 233h137.524c1.923 0 3.867-.078 5.777-.232l.072-.006.072.005c2.42.155 4.881.233 7.315.233Zm0 1c-2.48 0-4.941-.079-7.379-.235-1.93.155-3.886.235-5.857.235H92.181c-39.716 0-71.913-32.197-71.913-71.913 0-39.716 32.197-71.912 71.913-71.912h51.275C160.081 53.595 198.366 28 242.941 28c59.827 0 108.327 46.115 108.327 103s-48.5 103-108.327 103Z" fill="#fff" fill-opacity=".5"/></g></g><defs><filter id="a" x="64.631" y="139.914" width="242.638" height="158.286" filterUnits="userSpaceOnUse" color-interpolation-filters="sRGB"><feFlood flood-opacity="0" result="BackgroundImageFix"/><feBlend in="SourceGraphic" in2="BackgroundImageFix" result="shape"/><feGaussianBlur stdDeviation="2" result="effect1_foregroundBlur_7_2004"/></filter><filter id="b" x="0" y="0" width="391.268" height="266" filterUnits="userSpaceOnUse" color-interpolation-filters="sRGB"><feFlood flood-opacity="0" result="BackgroundImageFix"/><feColorMatrix in="SourceAlpha" values="0 0 0 0 0 0 0 0 0 0 0 0 0 0 0 0 0 0 127 0" result="hardAlpha"/><feOffset dx="10" dy="2"/><feGaussianBlur stdDeviation="15"/><feColorMatrix values="0 0 0 0 0.258824 0 0 0 0 0.627451 0 0 0 0 0.941176 0 0 0 0.596 0"/><feBlend in2="BackgroundImageFix" result="effect1_dropShadow_7_2004"/><feBlend in="SourceGraphic" in2="effect1_dropShadow_7_2004" result="shape"/><feGaussianBlur stdDeviation="2" result="effect2_foregroundBlur_7_2004"/></filter><filter id="c" x="0" y="0" width="391.268" height="266" filterUnits="userSpaceOnUse" color-interpolation-filters="sRGB"><feFlood flood-opacity="0" result="BackgroundImageFix"/><feColorMatrix in="SourceAlpha" values="0 0 0 0 0 0 0 0 0 0 0 0 0 0 0 0 0 0 127 0" result="hardAlpha"/><feOffset dx="10" dy="2"/><feGaussianBlur stdDeviation="15"/><feColorMatrix values="0 0 0 0 0.501961 0 0 0 0 0.501961 0 0 0 0 0.501961 0 0 0 0.302 0"/><feBlend in2="BackgroundImageFix" result="effect1_dropShadow_7_2004"/><feBlend in="SourceGraphic" in2="effect1_dropShadow_7_2004" result="shape"/></filter><linearGradient id="d" x1="154.164" y1="53.956" x2="220.206" y2="245.168" gradientUnits="userSpaceOnUse"><stop stop-color="#fff" stop-opacity=".596"/><stop offset="1" stop-color="#F7F7F7" stop-opacity=".204"/></linearGradient></defs></svg>
